X:1
T:Title
%%score 1 2
L:1/8
Q:1/4=90
M:6/8
K:Ab
V:1 treble nm="Strings 1, Soprano"
V:2 bass nm="Strings 1, Bass"
V:1
 z3 z2 [CA] | [Ec]2 [CA] [CA]2 E | [DF]2 [DF] [FA]2 [DF] | [CE]2 [CE] [EA]2 [Ac] | %4
w: 1.~Must~|I~ in~ sin ful~|bond age~ be,~ De|prived~ of~ peace~ and~|
 [GB]2 [G=A] [GB]2 _A | [Ac]2 [EA] [EA]2 E | [DF]2 [DF] [FA]2 [Ad] | [Ac]2 [EB] [EA]2 [EG] | %8
w: li ber ty,~ When~|in~ the~ prom ise~|I~ can~ see~ The~|blood~ of~ Je sus~|
 [EA]3 [EA]2 [Ac] | [ce]3- [ce]2 [Ac] | [ce]3- [ce]2 [EA] | [Ac]2 [Ac] [AB]2 A | [Ac]3 [GB]2 A | %13
w: cleans eth?~ *|||||
 [Ac]2 [EA] [EA]2 E | [DF]2 [DF] [FA]2 [DF] | [CE]2 [CE] [EA]2 [Ac] | [GB]2 [G=A] [GB]2 [_Ac] | %17
w: ||||
 [Ae]3- [Ae]2 [EA] | [Ac]3- [Ac]2 [Ad] | [Ac]2 [EB] [EA]2 [EG] | [EA]3 .[EA]3 |] %21
w: ||||
V:2
 z3 z2 [A,,A,] | [A,,A,]2 [A,,E,] [A,,E,]2 [C,A,] | [D,A,]2 [D,A,] [D,A,]2 [D,A,] | %3
 [A,,A,]2 [A,,A,] [A,,C]2 [A,,E] | [E,E]2 [E,E] [E,E]2 [A,,C] | [A,,E]2 [A,,C] [A,,C]2 [C,A,] | %6
 [D,A,]2 [D,A,] [D,D]2 [D,F] | [E,E]2 [E,D] [E,C]2 [E,B,] | [A,,C]3 .[A,,C]3 | z2 A, .A,3 | %10
 z2 A, A,2 [A,C] | [A,E]2 [A,E] [A,D]2 [A,C] | [E,E]3 [E,E]2 [A,,C] | %13
 [A,,E]2 [A,,C] [A,,C]2 [C,A,] | [D,A,]2 [D,A,] [D,A,]2 [D,A,] | [A,,A,]2 [A,,A,] [A,,C]2 [A,,E] | %16
 [E,E]2 [E,E] .[E,E]3 | z2 [A,C] .[A,C]3 | z2 [A,E] [A,E]2 [D,F] | [E,E]2 [E,D] [E,C]2 [E,B,] | %20
 [A,,C]3 .[A,,C]3 |] %21

